src/dist/images/icons/star.svg

<?xml version="1.0" encoding="UTF-8" standalone="no"?>
<svg width="38px" height="38px" viewBox="0 0 38 38" version="1.1" xmlns="http://www.w3.org/2000/svg" xmlns:xlink="http://www.w3.org/1999/xlink">
    <!-- Generator: sketchtool 46.2 (44496) - http://www.bohemiancoding.com/sketch -->
    <title>4D0552C4-85AE-42AF-A739-EC75B0B940CB</title>
    <desc>Created with sketchtool.</desc>
    <defs>
        <filter x="-7.5%" y="-5.0%" width="115.0%" height="109.9%" filterUnits="objectBoundingBox" id="filter-1">
            <feOffset dx="0" dy="0" in="SourceAlpha" result="shadowOffsetOuter1"></feOffset>
            <feGaussianBlur stdDeviation="7.5" in="shadowOffsetOuter1" result="shadowBlurOuter1"></feGaussianBlur>
            <feColorMatrix values="0 0 0 0 0   0 0 0 0 0.234912079   0 0 0 0 0.403300383  0 0 0 0.104251585 0" type="matrix" in="shadowBlurOuter1" result="shadowMatrixOuter1"></feColorMatrix>
            <feMerge>
                <feMergeNode in="shadowMatrixOuter1"></feMergeNode>
                <feMergeNode in="SourceGraphic"></feMergeNode>
            </feMerge>
        </filter>
        <polygon id="path-2" points="6.6 0.230769231 4.725 4.46153846 0.6 4.84692308 3.71325 8.06769231 2.85 12.5384615 6.5865 10.2023077 10.32075 12.5384615 9.483 8.06461538 12.6 4.84692308 8.475 4.46153846"></polygon>
    </defs>
    <g id="Page-1" stroke="none" stroke-width="1" fill="none" fill-rule="evenodd">
        <g id="Hotel-Osaka-Baytower-Homepage-Desktop" transform="translate(-731.000000, -4512.000000)">
            <g id="Nearby-Hotels" transform="translate(250.000000, 4123.000000)">
                <g id="Hotel-MyStays-Premier-Omori" filter="url(#filter-1)" transform="translate(320.000000, 122.000000)">
                    <g id="Info" transform="translate(36.000000, 227.260000)">
                        <g id="Rating" transform="translate(78.000000, 51.740000)">
                            <g id="star-half" transform="translate(59.400000, 0.000000)">
                                <g id="star-copy-5">
                                    <use fill="#FFFFFF" fill-rule="evenodd" xlink:href="#path-2"></use>
                                    <path stroke="#FF890D" stroke-width="1" d="M6.6,1.46480603 L5.06335642,4.93210437 L1.68301298,5.24791828 L4.253482,7.90716104 L3.55864599,11.5057147 L6.58657985,9.61257427 L9.6194662,11.5099537 L8.94394585,7.90246445 L11.5155523,5.24778423 L8.13664358,4.93210437 L6.6,1.46480603 Z"></path>
                                </g>
                            </g>
                        </g>
                    </g>
                </g>
            </g>
        </g>
    </g>
</svg>

<svg xmlns="http://www.w3.org/2000/svg" xmlns:xlink="http://www.w3.org/1999/xlink" width="38" height="38" viewBox="0 0 38 38">
    <defs>
        <filter id="a" width="115%" height="109.9%" x="-7.5%" y="-5%" filterUnits="objectBoundingBox">
            <feOffset in="SourceAlpha" result="shadowOffsetOuter1"/>
            <feGaussianBlur in="shadowOffsetOuter1" result="shadowBlurOuter1" stdDeviation="7.5"/>
            <feColorMatrix in="shadowBlurOuter1" result="shadowMatrixOuter1" values="0 0 0 0 0 0 0 0 0 0.234912079 0 0 0 0 0.403300383 0 0 0 0.104251585 0"/>
            <feMerge>
                <feMergeNode in="shadowMatrixOuter1"/>
                <feMergeNode in="SourceGraphic"/>
            </feMerge>
        </filter>
        <path id="b" d="M6.6.23L4.725 4.463.6 4.847l3.113 3.22-.863 4.471 3.736-2.336 3.735 2.336-.838-4.473L12.6 4.847l-4.125-.385z"/>
    </defs>
    <g fill="none" fill-rule="evenodd" filter="url(#a)" transform="translate(12.4 12)">
        <use fill="#FFF" xlink:href="#b"/>
        <path stroke="#FF890D" d="M6.6 1.465L5.063 4.932l-3.38.316 2.57 2.66-.694 3.598 3.028-1.893 3.032 1.897-.675-3.608 2.572-2.654-3.38-.316L6.6 1.465z"/>
    </g>
</svg>
